X:1
T: Marching through Georgia
C: Henry Clay Work
M: 4/4
L: 1/16
K: C
"G"B3AG2A2B2D2D2D2|
"C"E2G2G2A2"G"G8|
"G"B2d2d2d2e2d2B2G2|
"A7"AA2AA2B2"D7"A8|
"G"G2G2A2B2"C"c2E2-E2_E2|
"G"D2D2G2A2"E7"B6_B2|
"Am7"A4A4"D7"A4B2A2|
"G"G8G6B2|
"G"d6B2d6B2|
"C"GGGGG2E2"G"D6B2|
"G"d6B2d6B2|
"A7"AAAAA2B2"D7"A6D2|
"G7"G2G2A2B2"C"c2E2-E2_E2|
"G"D2D2G2A2"E7"B6_B2|
"Am7"A4A4"D7"A4B2A2|
"G"G8G8|]